icons/badge/info/octagon.svg

<svg width="32" height="32" viewBox="0 0 32 32" fill="none" xmlns="http://www.w3.org/2000/svg">
<path fill-rule="evenodd" clip-rule="evenodd" d="M11.0809 2C10.5504 2 10.0417 2.21071 9.66667 2.58579L2.58579 9.66667C2.21071 10.0417 2 10.5504 2 11.0809V20.9191C2 21.4496 2.21071 21.9583 2.58579 22.3333L9.66667 29.4142C10.0417 29.7893 10.5504 30 11.0809 30H20.9191C21.4496 30 21.9583 29.7893 22.3333 29.4142L29.4142 22.3333C29.7893 21.9583 30 21.4496 30 20.9191V11.0809C30 10.5504 29.7893 10.0417 29.4142 9.66667L22.3333 2.58579C21.9583 2.21071 21.4496 2 20.9191 2H11.0809ZM11.0809 4L20.9191 4L28 11.0809L28 20.9191L20.9191 28L11.0809 28L4 20.9191V11.0809L11.0809 4ZM19 21H17V16V15H16H14V17H15V21H13V23H19V21ZM17.5 9H14.5V12H17.5V9Z" fill="black"/>
</svg>

<svg width="32" height="32" viewBox="0 0 32 32" xmlns="http://www.w3.org/2000/svg">
    <path fill-rule="evenodd" d="M11.08 2a2 2 0 00-1.413.586l-7.081 7.08A2 2 0 002 11.082v9.838a2 2 0 00.586 1.414l7.08 7.081a2 2 0 001.415.586h9.838a2 2 0 001.414-.586l7.081-7.08A2 2 0 0030 20.918v-9.838a2 2 0 00-.586-1.414l-7.08-7.081A2 2 0 0020.918 2h-9.838zm0 2h9.84L28 11.08v9.84L20.92 28h-9.84L4 20.92v-9.84L11.08 4zM19 21h-2v-6h-3v2h1v4h-2v2h6v-2zM17.5 9h-3v3h3V9z"/>
</svg>
